; generated by PrusaSlicer 2.5.0+win64 on 2022-11-05 at 21:21:22 UTC

; 

; external perimeters extrusion width = 0.45mm
; perimeters extrusion width = 0.45mm
; infill extrusion width = 0.45mm
; solid infill extrusion width = 0.45mm
; top infill extrusion width = 0.45mm
; support material extrusion width = 0.45mm
; first layer extrusion width = 0.42mm

M201 X3000 Y3000 Z100 E10000 ; sets maximum accelerations, mm/sec^2
M203 X150 Y150 Z50 E25 ; sets maximum feedrates, mm / sec
M204 P1000 R1000 T1000 ; sets acceleration (P, T) and retract acceleration (R), mm/sec^2
M205 X10.00 Y10.00 Z0.20 E2.50 ; sets the jerk limits, mm/sec
M205 S0 T0 ; sets the minimum extruding and travel feed rate, mm/sec
M107
;TYPE:Custom
M82 ;absolute extrusion mode
;Start GCode begin
M140 S65   ;Start Warming Bed
M104 S160 ;Preheat Nozzle
G28 ; home all axes
G90 ;absolute positioning
G1 X-10 Y-10 F3000
G1 Z0 F1800
G1 Z5 F5000 ; lift nozzle
M190 S65   ;Wait For Bed Temperature
M109 S210 ;Wait for Hotend Temperature
G92 E0
G1 E10 F200
G1 E-2 F300
G92 E0
;Start GCode end
G1 F3600 E-2
G21 ; set units to millimeters
G90 ; use absolute coordinates
M82 ; use absolute distances for extrusion
G92 E0
; Filament gcode
M107
;LAYER_CHANGE
;Z:0.4
;HEIGHT:0.4
G1 E-3 F900
G92 E0
G1 Z.4 F7200
G1 X95.207 Y104.582
G1 E3 F900
;TYPE:Skirt/Brim
;WIDTH:0.42
G1 F750
G1 X96.221 Y103.991 E3.06522
G1 X110.542 Y98.263 E3.92234
G1 X119.355 Y95.318 E4.43872
G1 X120.62 Y95.112 E4.50998
G1 X132.293 Y95.112 E5.15862
G1 X134.027 Y95.507 E5.25743
G1 X135.418 Y96.614 E5.35625
G1 X136.193 Y98.215 E5.45507
G1 X136.295 Y99.115 E5.50539
G1 X136.295 Y110.787 E6.15403
G1 X135.499 Y139.856 E7.77005
G1 X135.249 Y141.277 E7.85022
G1 X134.828 Y142.624 E7.92863
G1 X133.979 Y144.355 E8.03577
G1 X133.479 Y145.115 E8.08632
G1 X132.538 Y146.242 E8.16795
G1 X131.471 Y147.216 E8.24822
G1 X130.315 Y148.025 E8.3266
G1 X128.564 Y148.888 E8.43508
G1 X127.219 Y149.308 E8.51341
G1 X125.799 Y149.559 E8.59352
G1 X124.625 Y149.627 E8.65885
G1 X105.406 Y149.627 E9.72691
G1 X104.268 Y149.572 E9.79019
G1 X102.845 Y149.337 E9.87035
G1 X101.459 Y148.912 E9.95089
G1 X99.677 Y148.039 E10.06117
G1 X98.916 Y147.529 E10.11207
G1 X97.828 Y146.624 E10.19073
G1 X96.836 Y145.543 E10.27227
G1 X96.021 Y144.385 E10.35098
G1 X95.153 Y142.614 E10.46055
G1 X94.723 Y141.218 E10.54177
G1 X94.553 Y140.317 E10.59266
G1 X94.435 Y138.789 E10.67785
G1 X93.705 Y116.945 E11.8924
G1 X93.705 Y107.707 E12.40578
G1 X94.1 Y105.973 E12.50459
G1 X95.169 Y104.629 E12.60007
G1 X95.442 Y104.86 F7200
G1 F750
G1 X95.532 Y104.753 E12.60782
G1 X96.345 Y104.301 E12.65949
G1 X110.666 Y98.573 E13.51661
G1 X119.46 Y95.635 E14.03191
G1 X120.62 Y95.446 E14.09721
G1 X132.293 Y95.446 E14.74585
G1 X133.948 Y95.841 E14.8404
G1 X135.247 Y96.94 E14.93494
G1 X135.961 Y99.115 E15.06216
G1 X135.961 Y110.787 E15.7108
G1 X135.166 Y139.835 E17.32561
G1 X134.921 Y141.211 E17.40329
G1 X134.512 Y142.517 E17.47937
G1 X133.7 Y144.171 E17.58175
G1 X133.2 Y144.931 E17.63231
G1 X132.287 Y146.021 E17.71132
G1 X131.251 Y146.964 E17.78914
G1 X130.13 Y147.747 E17.86515
G1 X128.458 Y148.571 E17.96876
G1 X127.152 Y148.981 E18.04477
G1 X125.777 Y149.225 E18.1224
G1 X124.625 Y149.293 E18.18651
G1 X105.406 Y149.293 E19.25457
G1 X104.287 Y149.238 E19.31684
G1 X102.908 Y149.008 E19.39451
G1 X101.565 Y148.595 E19.47258
G1 X99.863 Y147.762 E19.57789
G1 X99.102 Y147.252 E19.62879
G1 X98.047 Y146.372 E19.70512
G1 X97.088 Y145.324 E19.78409
G1 X96.299 Y144.198 E19.86047
G1 X95.47 Y142.507 E19.96513
G1 X95.051 Y141.156 E20.04377
G1 X94.881 Y140.255 E20.09467
G1 X94.769 Y138.778 E20.17702
G1 X94.039 Y116.945 E21.39095
G1 X94.039 Y107.707 E21.90432
G1 X94.433 Y106.052 E21.99887
G1 X95.403 Y104.905 E22.08234
G1 X95.731 Y105.272 F7200
G1 F750
G1 X96.469 Y104.612 E22.13735
G1 X110.79 Y98.883 E22.99447
G1 X119.566 Y95.952 E23.50867
G1 X120.62 Y95.781 E23.56803
G1 X132.293 Y95.781 E24.21667
G1 X133.865 Y96.175 E24.30675
G1 X135.066 Y97.263 E24.39682
G1 X135.627 Y99.115 E24.50432
G1 X135.626 Y110.874 E25.15779
G1 X134.832 Y139.813 E26.76655
G1 X134.594 Y141.145 E26.84175
G1 X134.195 Y142.41 E26.9155
G1 X133.624 Y143.632 E26.99044
G1 X132.921 Y144.748 E27.06371
G1 X131.723 Y146.112 E27.1646
G1 X131.032 Y146.712 E27.21544
G1 X129.945 Y147.469 E27.28909
G1 X128.351 Y148.254 E27.38783
G1 X127.086 Y148.653 E27.46151
G1 X125.755 Y148.892 E27.53666
G1 X124.625 Y148.959 E27.59954
G1 X105.406 Y148.959 E28.6676
G1 X104.305 Y148.904 E28.72886
G1 X102.97 Y148.68 E28.80405
G1 X101.671 Y148.278 E28.87965
G1 X100.049 Y147.484 E28.97998
G1 X99.288 Y146.974 E29.03088
G1 X98.267 Y146.12 E29.10488
G1 X97.34 Y145.104 E29.18129
G1 X96.576 Y144.012 E29.25535
G1 X95.786 Y142.4 E29.35509
G1 X95.379 Y141.094 E29.43116
G1 X95.21 Y140.194 E29.48206
G1 X95.103 Y138.767 E29.56157
G1 X94.373 Y116.945 E30.77488
G1 X94.373 Y107.707 E31.28825
G1 X94.767 Y106.135 E31.37833
G1 X95.687 Y105.312 E31.44691
G1 E28.44691 F900
G92 E0
G1 X132.293 Y110.787 F7200
G1 E3 F900
;TYPE:Support material
G1 F750
G1 X126.564 Y110.787 E3.31833
G1 X126.564 Y112.532 E3.41532
G1 X125.56 Y112.335 E3.4722
G1 X124.581 Y112.29 E3.52668
G1 X105.31 Y112.29 E4.5976
G1 X104.443 Y112.334 E4.64583
G1 X103.513 Y112.5 E4.69834
G1 X102.961 Y112.686 E4.73072
G1 X102.219 Y113.037 E4.77629
G1 X101.013 Y113.66 E4.85172
G1 X100.139 Y114.406 E4.9156
G1 X99.497 Y115.152 E4.97028
G1 X98.956 Y115.955 E5.02411
G1 X98.527 Y116.839 E5.07867
G1 X98.419 Y117.162 E5.09761
G1 X97.707 Y116.945 E5.13895
G1 X97.707 Y107.707 E5.65233
G1 X106.3 Y107.707 E6.12982
G1 X106.3 Y104.843 E6.28898
G1 X112.028 Y104.843 E6.60731
G1 X112.028 Y101.979 E6.76647
G1 X120.62 Y101.979 E7.24397
G1 X120.62 Y99.115 E7.40313
G1 X132.293 Y99.115 E8.05177
G1 X132.293 Y110.737 E8.69762
G1 X131.875 Y110.637 F7200
G1 F750
G1 X131.875 Y99.415 E9.32119
G1 X131.541 Y99.415 E9.33976
G1 X131.541 Y110.486 E9.95498
G1 X131.207 Y110.486 E9.97355
G1 X131.207 Y99.415 E10.58876
G1 X130.873 Y99.415 E10.60733
G1 X130.873 Y110.486 E11.22255
G1 X130.538 Y110.486 E11.24112
G1 X130.538 Y99.415 E11.85633
G1 X130.204 Y99.415 E11.8749
G1 X130.204 Y110.486 E12.49011
G1 X129.87 Y110.486 E12.50868
G1 X129.87 Y99.415 E13.1239
G1 X129.536 Y99.415 E13.14247
G1 X129.536 Y110.486 E13.75768
G1 X129.202 Y110.486 E13.77625
G1 X129.202 Y99.415 E14.39147
G1 X128.868 Y99.415 E14.41004
G1 X128.868 Y110.486 E15.02525
G1 X128.533 Y110.486 E15.04382
G1 X128.533 Y99.415 E15.65903
G1 X128.199 Y99.415 E15.6776
G1 X128.199 Y110.486 E16.29282
G1 X127.865 Y110.486 E16.31139
G1 X127.865 Y99.415 E16.9266
G1 X127.531 Y99.415 E16.94517
G1 X127.531 Y110.486 E17.56039
G1 X127.197 Y110.486 E17.57896
G1 X127.197 Y99.415 E18.19417
G1 X126.863 Y99.415 E18.21274
G1 X126.863 Y110.486 E18.82796
G1 X126.528 Y110.486 E18.84652
G1 X126.528 Y99.415 E19.46174
G1 X126.194 Y99.415 E19.48031
G1 X126.194 Y112.148 E20.18788
G1 X125.86 Y112.085 E20.20678
G1 X125.86 Y99.415 E20.91084
G1 X125.526 Y99.415 E20.92941
G1 X125.526 Y112.03 E21.63041
G1 X125.192 Y112.017 E21.64899
G1 X125.192 Y99.415 E22.34929
G1 X124.858 Y99.415 E22.36786
G1 X124.858 Y112.001 E23.06727
G1 X124.523 Y111.989 E23.08585
G1 X124.523 Y99.415 E23.78459
G1 X124.189 Y99.415 E23.80316
G1 X124.189 Y111.989 E24.50189
G1 X123.855 Y111.989 E24.52046
G1 X123.855 Y99.415 E25.2192
G1 X123.521 Y99.415 E25.23777
G1 X123.521 Y111.989 E25.9365
G1 X123.187 Y111.989 E25.95507
G1 X123.187 Y99.415 E26.65381
G1 X122.853 Y99.415 E26.67238
G1 X122.853 Y111.989 E27.37111
G1 X122.519 Y111.989 E27.38968
G1 X122.519 Y99.415 E28.08841
G1 X122.184 Y99.415 E28.10698
G1 X122.184 Y111.989 E28.80572
G1 X121.85 Y111.989 E28.82429
G1 X121.85 Y99.415 E29.52302
G1 X121.516 Y99.415 E29.54159
G1 X121.516 Y111.989 E30.24033
G1 X121.182 Y111.989 E30.2589
G1 X121.182 Y99.415 E30.95763
G1 X120.921 Y99.415 E30.97212
G1 X120.921 Y102.28 E31.13128
G1 X120.848 Y102.28 E31.13537
G1 X120.848 Y111.989 E31.67494
G1 X120.514 Y111.989 E31.69351
G1 X120.514 Y102.28 E32.23308
G1 X120.179 Y102.28 E32.25165
G1 X120.179 Y111.989 E32.79122
G1 X119.845 Y111.989 E32.80979
G1 X119.845 Y102.28 E33.34936
G1 X119.511 Y102.28 E33.36793
G1 X119.511 Y111.989 E33.9075
G1 X119.177 Y111.989 E33.92607
G1 X119.177 Y102.28 E34.46564
G1 X118.843 Y102.28 E34.48421
G1 X118.843 Y111.989 E35.02378
G1 X118.509 Y111.989 E35.04235
G1 X118.509 Y102.28 E35.58192
G1 X118.174 Y102.28 E35.60049
G1 X118.174 Y111.989 E36.14006
G1 X117.84 Y111.989 E36.15863
G1 X117.84 Y102.28 E36.6982
G1 X117.506 Y102.28 E36.71677
G1 X117.506 Y111.989 E37.25634
G1 X117.172 Y111.989 E37.27491
G1 X117.172 Y102.28 E37.81448
G1 X116.838 Y102.28 E37.83305
G1 X116.838 Y111.989 E38.37262
G1 X116.504 Y111.989 E38.39119
G1 X116.504 Y102.28 E38.93076
G1 X116.17 Y102.28 E38.94933
G1 X116.17 Y111.989 E39.4889
G1 X115.835 Y111.989 E39.50747
G1 X115.835 Y102.28 E40.04704
G1 X115.501 Y102.28 E40.06561
G1 X115.501 Y111.989 E40.60518
G1 X115.167 Y111.989 E40.62375
G1 X115.167 Y102.28 E41.16332
G1 X114.833 Y102.28 E41.18189
G1 X114.833 Y111.989 E41.72146
G1 X114.499 Y111.989 E41.74003
G1 X114.499 Y102.28 E42.2796
G1 X114.165 Y102.28 E42.29817
G1 X114.165 Y111.989 E42.83774
G1 X113.83 Y111.989 E42.85631
G1 X113.83 Y102.28 E43.39588
G1 X113.496 Y102.28 E43.41445
G1 X113.496 Y111.989 E43.95402
G1 X113.162 Y111.989 E43.97259
G1 X113.162 Y102.28 E44.51216
G1 X112.828 Y102.28 E44.53073
G1 X112.828 Y111.989 E45.07031
G1 X112.494 Y111.989 E45.08887
G1 X112.494 Y102.28 E45.62845
G1 X112.329 Y102.28 E45.63762
G1 X112.329 Y105.144 E45.79678
G1 X112.16 Y105.144 E45.80618
G1 X112.16 Y111.989 E46.18659
G1 X111.825 Y111.989 E46.20516
G1 X111.825 Y105.144 E46.58556
G1 X111.491 Y105.144 E46.60413
G1 X111.491 Y111.989 E46.98454
G1 X111.157 Y111.989 E47.00311
G1 X111.157 Y105.144 E47.38352
G1 X110.823 Y105.144 E47.40208
G1 X110.823 Y111.989 E47.78249
G1 X110.489 Y111.989 E47.80106
G1 X110.489 Y105.144 E48.18147
G1 X110.155 Y105.144 E48.20004
G1 X110.155 Y111.989 E48.58044
G1 X109.82 Y111.989 E48.59901
G1 X109.82 Y105.144 E48.97942
G1 X109.486 Y105.144 E48.99799
G1 X109.486 Y111.989 E49.3784
G1 X109.152 Y111.989 E49.39697
G1 X109.152 Y105.144 E49.77737
G1 X108.818 Y105.144 E49.79594
G1 X108.818 Y111.989 E50.17635
G1 X108.484 Y111.989 E50.19492
G1 X108.484 Y105.144 E50.57533
G1 X108.15 Y105.144 E50.5939
G1 X108.15 Y111.989 E50.9743
G1 X107.816 Y111.989 E50.99287
G1 X107.816 Y105.144 E51.37328
G1 X107.481 Y105.144 E51.39185
G1 X107.481 Y111.989 E51.77226
G1 X107.147 Y111.989 E51.79083
G1 X107.147 Y105.144 E52.17123
G1 X106.813 Y105.144 E52.1898
G1 X106.813 Y111.989 E52.57021
G1 X106.479 Y111.989 E52.58878
G1 X106.479 Y108.008 E52.81002
G1 X106.145 Y108.008 E52.82859
G1 X106.145 Y111.989 E53.04983
G1 X105.811 Y111.989 E53.0684
G1 X105.811 Y108.008 E53.28965
G1 X105.476 Y108.008 E53.30822
G1 X105.476 Y111.989 E53.52946
G1 X105.142 Y111.997 E53.54803
G1 X105.142 Y108.008 E53.7697
G1 X104.808 Y108.008 E53.78827
G1 X104.808 Y112.013 E54.01086
G1 X104.474 Y112.03 E54.02945
G1 X104.474 Y108.008 E54.25295
G1 X104.14 Y108.008 E54.27152
G1 X104.14 Y112.083 E54.49796
G1 X103.806 Y112.142 E54.51682
G1 X103.806 Y108.008 E54.74656
G1 X103.471 Y108.008 E54.76513
G1 X103.471 Y112.202 E54.99817
G1 X103.137 Y112.307 E55.01764
G1 X103.137 Y108.008 E55.25655
G1 X102.803 Y108.008 E55.27512
G1 X102.803 Y112.428 E55.52075
G1 X102.469 Y112.586 E55.54129
G1 X102.469 Y108.008 E55.7957
G1 X102.135 Y108.008 E55.81427
G1 X102.135 Y112.744 E56.07745
G1 X101.801 Y112.915 E56.0983
G1 X101.801 Y108.008 E56.37098
G1 X101.467 Y108.008 E56.38954
G1 X101.467 Y113.087 E56.67182
G1 X101.132 Y113.26 E56.69272
G1 X101.132 Y108.008 E56.9846
G1 X100.798 Y108.008 E57.00317
G1 X100.798 Y113.443 E57.30519
G1 X100.464 Y113.729 E57.32963
G1 X100.464 Y108.008 E57.64755
G1 X100.13 Y108.008 E57.66612
G1 X100.13 Y114.017 E58.00003
G1 X99.934 Y114.186 E58.01442
G1 X99.796 Y114.34 E58.02594
G1 X99.796 Y108.008 E58.37784
G1 X99.462 Y108.008 E58.39641
G1 X99.462 Y114.731 E58.76999
G1 X99.263 Y114.963 E58.78698
G1 X99.127 Y115.16 E58.80026
G1 X99.127 Y108.008 E59.1977
G1 X98.793 Y108.008 E59.21627
G1 X98.793 Y115.658 E59.64139
G1 X98.674 Y115.842 E59.65355
G1 X98.459 Y116.288 E59.68108
G1 X98.459 Y108.008 E60.14122
G1 X98.125 Y108.008 E60.15979
G1 X98.125 Y116.915 E60.65478
G1 E57.65478 F900
G92 E0
G1 X101.787 Y114.851 F7200
G1 E3 F900
;TYPE:Perimeter
;WIDTH:0.42
G1 F750
G1 X102.849 Y114.302 E3.06644
G1 X103.362 Y114.06 E3.09794
G1 X103.85 Y113.875 E3.12693
G1 X104.616 Y113.739 E3.17016
G1 X105.339 Y113.703 E3.21041
G1 X124.638 Y113.707 E4.28288
G1 X125.384 Y113.739 E4.32434
G1 X126.155 Y113.885 E4.36798
G1 X126.911 Y114.126 E4.41206
G1 X127.609 Y114.466 E4.45519
G1 X128.272 Y114.905 E4.49937
G1 X128.871 Y115.428 E4.54359
G1 X129.385 Y116.019 E4.58711
G1 X129.823 Y116.68 E4.63116
G1 X130.165 Y117.389 E4.67491
G1 X130.405 Y118.136 E4.71851
G1 X130.551 Y118.917 E4.76267
G1 X130.587 Y119.868 E4.81557
G1 X130.587 Y138.653 E5.85946
G1 X130.533 Y139.466 E5.90472
G1 X130.379 Y140.231 E5.9481
G1 X130.13 Y140.97 E5.99146
G1 X129.785 Y141.668 E6.03469
G1 X129.356 Y142.32 E6.07807
G1 X128.845 Y142.899 E6.121
G1 X128.251 Y143.416 E6.16475
G1 X127.605 Y143.846 E6.20786
G1 X126.911 Y144.189 E6.25088
G1 X126.171 Y144.438 E6.29428
G1 X125.406 Y144.593 E6.33766
G1 X124.593 Y144.647 E6.38292
G1 X105.432 Y144.647 E7.4477
G1 X104.605 Y144.602 E7.49377
G1 X103.843 Y144.456 E7.53688
G1 X103.096 Y144.207 E7.58061
G1 X102.395 Y143.865 E7.62396
G1 X101.741 Y143.427 E7.66773
G1 X101.149 Y142.911 E7.71133
G1 X100.633 Y142.319 E7.75498
G1 X100.195 Y141.666 E7.79868
G1 X99.853 Y140.963 E7.84214
G1 X99.604 Y140.227 E7.88531
G1 X99.459 Y139.457 E7.92886
G1 X99.413 Y138.628 E7.97498
G1 X99.413 Y119.629 E9.03075
G1 X99.449 Y118.915 E9.07051
G1 X99.587 Y118.134 E9.11456
G1 X99.834 Y117.382 E9.15855
G1 X100.177 Y116.672 E9.20235
G1 X100.616 Y116.018 E9.24615
G1 X101.13 Y115.418 E9.29006
G1 X101.742 Y114.89 E9.33495
G1 X101.599 Y114.572 F7200
G1 F750
G1 X102.701 Y114.003 E9.40391
G1 X103.219 Y113.758 E9.43574
G1 X103.766 Y113.551 E9.46824
G1 X104.578 Y113.406 E9.51407
G1 X105.331 Y113.369 E9.55596
G1 X124.645 Y113.373 E10.62929
G1 X125.422 Y113.407 E10.67248
G1 X126.237 Y113.561 E10.71858
G1 X127.036 Y113.815 E10.76514
G1 X127.775 Y114.175 E10.81085
G1 X128.475 Y114.639 E10.85748
G1 X129.108 Y115.191 E10.90421
G1 X129.652 Y115.816 E10.95023
G1 X130.114 Y116.514 E10.99676
G1 X130.476 Y117.265 E11.04306
G1 X130.729 Y118.054 E11.08911
G1 X130.884 Y118.879 E11.13576
G1 X130.921 Y119.868 E11.19078
G1 X130.921 Y138.664 E12.23528
G1 X130.865 Y139.51 E12.28239
G1 X130.702 Y140.318 E12.32819
G1 X130.439 Y141.098 E12.37396
G1 X130.075 Y141.834 E12.41958
G1 X129.622 Y142.523 E12.46541
G1 X129.081 Y143.137 E12.51088
G1 X128.454 Y143.682 E12.55705
G1 X127.773 Y144.136 E12.60255
G1 X127.039 Y144.498 E12.64802
G1 X126.258 Y144.762 E12.69382
G1 X125.45 Y144.925 E12.73961
G1 X124.604 Y144.981 E12.78673
G1 X105.423 Y144.981 E13.85263
G1 X104.564 Y144.934 E13.90045
G1 X103.758 Y144.78 E13.94604
G1 X102.969 Y144.517 E13.99225
G1 X102.228 Y144.155 E14.0381
G1 X101.537 Y143.692 E14.0843
G1 X100.912 Y143.148 E14.13036
G1 X100.367 Y142.523 E14.17646
G1 X99.905 Y141.833 E14.2226
G1 X99.543 Y141.09 E14.26853
G1 X99.28 Y140.312 E14.31419
G1 X99.127 Y139.497 E14.36024
G1 X99.079 Y138.637 E14.4081
G1 X99.079 Y119.621 E15.46484
G1 X99.116 Y118.877 E15.50623
G1 X99.262 Y118.052 E15.55277
G1 X99.524 Y117.257 E15.59932
G1 X99.886 Y116.506 E15.64565
G1 X100.349 Y115.815 E15.69186
G1 X100.893 Y115.181 E15.73827
G1 X101.553 Y114.612 E15.78675
G1 X101.411 Y114.294 F7200
;TYPE:External perimeter
G1 F375
G1 X102.553 Y113.703 E15.85822
G1 X103.076 Y113.456 E15.89039
G1 X103.683 Y113.226 E15.92641
G1 X104.54 Y113.074 E15.97482
G1 X105.323 Y113.035 E16.01835
G1 X124.653 Y113.039 E17.09254
G1 X125.46 Y113.074 E17.13746
G1 X126.319 Y113.236 E17.18602
G1 X127.16 Y113.504 E17.23508
G1 X127.941 Y113.885 E17.28336
G1 X128.677 Y114.372 E17.33244
G1 X129.345 Y114.955 E17.38167
G1 X129.918 Y115.613 E17.43019
G1 X130.405 Y116.349 E17.4792
G1 X130.787 Y117.14 E17.52805
G1 X131.054 Y117.971 E17.57655
G1 X131.217 Y118.84 E17.6257
G1 X131.255 Y119.868 E17.68284
