; generated by PrusaSlicer 2.5.0+win64 on 2022-11-06 at 15:30:27 UTC

; 

; external perimeters extrusion width = 0.45mm
; perimeters extrusion width = 0.45mm
; infill extrusion width = 0.45mm
; solid infill extrusion width = 0.45mm
; top infill extrusion width = 0.45mm
; support material extrusion width = 0.45mm
; first layer extrusion width = 0.42mm

M201 X3000 Y3000 Z100 E10000 ; sets maximum accelerations, mm/sec^2
M203 X150 Y150 Z50 E25 ; sets maximum feedrates, mm / sec
M204 P1000 R1000 T1000 ; sets acceleration (P, T) and retract acceleration (R), mm/sec^2
M205 X10.00 Y10.00 Z0.20 E2.50 ; sets the jerk limits, mm/sec
M205 S0 T0 ; sets the minimum extruding and travel feed rate, mm/sec
M107
;TYPE:Custom
M82 ;absolute extrusion mode
;Start GCode begin
M140 S65   ;Start Warming Bed
M104 S160 ;Preheat Nozzle
G28 ; home all axes
G90 ;absolute positioning
G1 X-10 Y-10 F3000
G1 Z0 F1800
G1 Z5 F5000 ; lift nozzle
M190 S65   ;Wait For Bed Temperature
M109 S210 ;Wait for Hotend Temperature
G92 E0
G1 E10 F200
G1 E-2 F300
G92 E0
;Start GCode end
G1 F3600 E-2
G21 ; set units to millimeters
G90 ; use absolute coordinates
M82 ; use absolute distances for extrusion
G92 E0
; Filament gcode
M107
;LAYER_CHANGE
;Z:0.4
;HEIGHT:0.4
G1 E-3 F900
G92 E0
G1 Z.4 F7200
G1 X75.228 Y112.613
G1 E3 F900
;TYPE:Skirt/Brim
;WIDTH:0.42
G1 F750
G1 X75.997 Y112.103 E3.0513
G1 X77.301 Y111.434 E3.13274
G1 X78.879 Y110.892 E3.22543
G1 X130.764 Y97.072 E6.20926
G1 X131.794 Y96.937 E6.267
G1 X143.466 Y96.937 E6.91564
G1 X145.2 Y97.332 E7.01445
G1 X146.591 Y98.439 E7.11327
G1 X147.366 Y100.04 E7.21209
G1 X147.469 Y100.939 E7.26242
G1 X147.468 Y112.646 E7.91295
G1 X147.222 Y140.771 E9.47596
G1 X147.163 Y141.681 E9.52664
G1 X146.912 Y143.102 E9.6068
G1 X146.491 Y144.449 E9.68522
G1 X145.887 Y145.753 E9.76512
G1 X144.8 Y147.387 E9.87415
G1 X143.824 Y148.441 E9.95397
G1 X142.729 Y149.35 E10.03309
G1 X141.531 Y150.108 E10.11183
G1 X140.227 Y150.712 E10.1917
G1 X139.367 Y151.002 E10.24216
G1 X137.992 Y151.313 E10.32048
G1 X136.552 Y151.443 E10.40083
G1 X81.412 Y151.443 E13.46504
G1 X79.986 Y151.313 E13.54458
G1 X78.608 Y151.002 E13.62308
G1 X77.749 Y150.712 E13.67348
G1 X76.447 Y150.109 E13.75322
G1 X74.81 Y149.02 E13.86247
G1 X73.779 Y148.069 E13.9404
G1 X72.835 Y146.94 E14.02224
G1 X72.108 Y145.788 E14.09793
G1 X71.476 Y144.449 E14.18021
G1 X71.055 Y143.102 E14.25863
G1 X70.802 Y141.638 E14.34116
G1 X70.746 Y140.51 E14.40396
G1 X70.79 Y120.454 E15.51848
G1 X71.152 Y118.454 E15.63143
G1 X71.632 Y117.114 E15.71051
G1 X72.282 Y115.84 E15.79
G1 X73.14 Y114.598 E15.8739
G1 X73.751 Y113.908 E15.92509
G1 X75.183 Y112.653 E16.03091
G1 X75.401 Y112.902 F7200
G1 F750
G1 X76.182 Y112.382 E16.08305
G1 X77.446 Y111.735 E16.16197
G1 X78.965 Y111.215 E16.25116
G1 X130.85 Y97.395 E19.23499
G1 X131.794 Y97.271 E19.28791
G1 X143.466 Y97.271 E19.93655
G1 X145.121 Y97.666 E20.03109
G1 X146.42 Y98.764 E20.12564
G1 X147.134 Y100.939 E20.25286
G1 X147.134 Y112.643 E20.90324
G1 X146.889 Y140.749 E22.46519
G1 X146.829 Y141.659 E22.51586
G1 X146.585 Y143.036 E22.59355
G1 X146.175 Y144.342 E22.66963
G1 X145.587 Y145.605 E22.74705
G1 X144.55 Y147.166 E22.8512
G1 X143.605 Y148.189 E22.92856
G1 X142.543 Y149.072 E23.00532
G1 X141.383 Y149.808 E23.08166
G1 X140.121 Y150.396 E23.15905
G1 X139.26 Y150.686 E23.20951
G1 X137.926 Y150.985 E23.2855
G1 X136.53 Y151.11 E23.36338
G1 X81.434 Y151.11 E26.42513
G1 X80.053 Y150.985 E26.50221
G1 X78.715 Y150.685 E26.57837
G1 X77.856 Y150.395 E26.62877
G1 X76.595 Y149.809 E26.70604
G1 X75.031 Y148.77 E26.81039
G1 X74.03 Y147.848 E26.88602
G1 X73.114 Y146.756 E26.96523
G1 X72.406 Y145.637 E27.03883
G1 X71.792 Y144.342 E27.11845
G1 X71.382 Y143.036 E27.19453
G1 X71.136 Y141.62 E27.27438
G1 X71.08 Y140.51 E27.33617
G1 X71.124 Y120.469 E28.44988
G1 X71.469 Y118.56 E28.55767
G1 X71.933 Y117.259 E28.63441
G1 X72.562 Y116.022 E28.71154
G1 X73.391 Y114.819 E28.79268
G1 X74.001 Y114.129 E28.84388
G1 X75.356 Y112.942 E28.94402
G1 X75.574 Y113.191 F7200
G1 F750
G1 X76.367 Y112.661 E28.99699
G1 X77.591 Y112.036 E29.07338
G1 X79.051 Y111.538 E29.15908
G1 X130.936 Y97.718 E32.1429
G1 X131.794 Y97.605 E32.191
G1 X143.466 Y97.605 E32.83964
G1 X145.038 Y97.999 E32.92972
G1 X146.239 Y99.088 E33.01979
G1 X146.8 Y100.939 E33.12729
G1 X146.8 Y112.64 E33.77751
G1 X146.555 Y140.727 E35.3384
G1 X146.496 Y141.637 E35.38908
G1 X146.257 Y142.97 E35.46429
G1 X145.858 Y144.235 E35.53803
G1 X145.287 Y145.457 E35.61298
G1 X144.299 Y146.945 E35.71224
G1 X143.386 Y147.936 E35.78714
G1 X142.358 Y148.794 E35.86153
G1 X141.235 Y149.509 E35.93549
G1 X140.426 Y149.909 E35.98567
G1 X139.154 Y150.369 E36.06085
G1 X137.86 Y150.658 E36.13452
G1 X136.289 Y150.784 E36.22211
G1 X81.678 Y150.784 E39.25685
G1 X80.557 Y150.716 E39.31929
G1 X79.228 Y150.478 E39.39431
G1 X77.963 Y150.079 E39.46804
G1 X76.743 Y149.51 E39.54285
G1 X75.252 Y148.519 E39.6423
G1 X74.28 Y147.627 E39.71563
G1 X73.393 Y146.572 E39.79221
G1 X72.704 Y145.486 E39.86371
G1 X72.109 Y144.235 E39.94067
G1 X71.71 Y142.97 E40.01442
G1 X71.469 Y141.602 E40.09159
G1 X71.414 Y140.51 E40.15236
G1 X71.458 Y120.483 E41.26525
G1 X71.786 Y118.665 E41.36791
G1 X72.234 Y117.404 E41.44229
G1 X72.842 Y116.204 E41.51706
G1 X73.641 Y115.041 E41.59546
G1 X74.251 Y114.351 E41.64665
G1 X75.529 Y113.23 E41.74111
G1 E38.74111 F900
G92 E0
G1 X143.466 Y112.612 F7200
G1 E3 F900
;TYPE:Support material
G1 F750
G1 X140.602 Y112.612 E3.15916
G1 X140.602 Y115.476 E3.31833
G1 X139.962 Y115.055 E3.36089
G1 X139.086 Y114.63 E3.415
G1 X138.152 Y114.335 E3.46944
G1 X137.19 Y114.156 E3.52379
G1 X136.244 Y114.115 E3.57643
G1 X116.973 Y114.115 E4.64735
G1 X116.106 Y114.159 E4.69559
G1 X115.176 Y114.324 E4.74809
G1 X114.624 Y114.511 E4.78047
G1 X113.882 Y114.862 E4.82604
G1 X112.677 Y115.485 E4.90148
G1 X111.802 Y116.231 E4.96536
G1 X111.16 Y116.976 E5.02003
G1 X110.619 Y117.78 E5.07386
G1 X110.191 Y118.664 E5.12843
G1 X109.987 Y119.275 E5.16423
G1 X108.881 Y118.938 E5.2285
G1 X108.881 Y109.532 E5.75121
G1 X117.473 Y109.532 E6.2287
G1 X117.473 Y106.668 E6.38786
G1 X123.201 Y106.668 E6.70619
G1 X123.201 Y103.804 E6.86536
G1 X131.794 Y103.804 E7.34285
G1 X131.794 Y100.939 E7.50201
G1 X143.466 Y100.939 E8.15065
G1 X143.466 Y112.562 E8.79651
G1 X142.905 Y112.461 F7200
G1 F750
G1 X142.905 Y101.24 E9.42008
G1 X142.571 Y101.24 E9.43865
G1 X142.571 Y112.311 E10.05386
G1 X142.237 Y112.311 E10.07243
G1 X142.237 Y101.24 E10.68764
G1 X141.903 Y101.24 E10.70621
G1 X141.903 Y112.311 E11.32143
G1 X141.569 Y112.311 E11.34
G1 X141.569 Y101.24 E11.95521
G1 X141.235 Y101.24 E11.97378
G1 X141.235 Y112.311 E12.589
G1 X140.901 Y112.311 E12.60757
G1 X140.901 Y101.24 E13.22278
G1 X140.566 Y101.24 E13.24135
G1 X140.566 Y112.311 E13.85656
G1 X140.301 Y112.311 E13.8713
G1 X140.301 Y114.917 E14.0161
G1 X140.232 Y114.871 E14.0207
G1 X140.232 Y101.24 E14.77817
G1 X139.898 Y101.24 E14.79674
G1 X139.898 Y114.689 E15.54411
G1 X139.564 Y114.526 E15.56478
G1 X139.564 Y101.24 E16.30308
G1 X139.23 Y101.24 E16.32165
G1 X139.23 Y114.364 E17.05093
G1 X138.896 Y114.254 E17.07047
G1 X138.896 Y101.24 E17.79365
G1 X138.561 Y101.24 E17.81222
G1 X138.561 Y114.148 E18.5295
G1 X138.227 Y114.043 E18.54895
G1 X138.227 Y101.24 E19.26044
G1 X137.893 Y101.24 E19.27901
G1 X137.893 Y113.98 E19.98695
G1 X137.559 Y113.917 E20.00585
G1 X137.559 Y101.24 E20.71029
G1 X137.225 Y101.24 E20.72886
G1 X137.225 Y113.857 E21.42997
G1 X136.891 Y113.844 E21.44856
G1 X136.891 Y101.24 E22.14895
G1 X136.556 Y101.24 E22.16752
G1 X136.556 Y113.828 E22.86703
G1 X136.222 Y113.814 E22.88561
G1 X136.222 Y101.24 E23.58435
G1 X135.888 Y101.24 E23.60292
G1 X135.888 Y113.814 E24.30165
G1 X135.554 Y113.814 E24.32022
G1 X135.554 Y101.24 E25.01896
G1 X135.22 Y101.24 E25.03753
G1 X135.22 Y113.814 E25.73626
G1 X134.886 Y113.814 E25.75483
G1 X134.886 Y101.24 E26.45357
G1 X134.552 Y101.24 E26.47214
G1 X134.552 Y113.814 E27.17087
G1 X134.217 Y113.814 E27.18944
G1 X134.217 Y101.24 E27.88818
G1 X133.883 Y101.24 E27.90675
G1 X133.883 Y113.814 E28.60548
G1 X133.549 Y113.814 E28.62405
G1 X133.549 Y101.24 E29.32278
G1 X133.215 Y101.24 E29.34135
G1 X133.215 Y113.814 E30.04009
G1 X132.881 Y113.814 E30.05866
G1 X132.881 Y101.24 E30.75739
G1 X132.547 Y101.24 E30.77596
G1 X132.547 Y113.814 E31.4747
G1 X132.212 Y113.814 E31.49327
G1 X132.212 Y101.24 E32.192
G1 X132.095 Y101.24 E32.19855
G1 X132.095 Y104.104 E32.35771
G1 X131.878 Y104.104 E32.36974
G1 X131.878 Y113.814 E32.90931
G1 X131.544 Y113.814 E32.92788
G1 X131.544 Y104.104 E33.46745
G1 X131.21 Y104.104 E33.48602
G1 X131.21 Y113.814 E34.02559
G1 X130.876 Y113.814 E34.04416
G1 X130.876 Y104.104 E34.58373
G1 X130.542 Y104.104 E34.6023
G1 X130.542 Y113.814 E35.14187
G1 X130.207 Y113.814 E35.16044
G1 X130.207 Y104.104 E35.70001
G1 X129.873 Y104.104 E35.71858
G1 X129.873 Y113.814 E36.25815
G1 X129.539 Y113.814 E36.27672
G1 X129.539 Y104.104 E36.81629
G1 X129.205 Y104.104 E36.83486
G1 X129.205 Y113.814 E37.37443
G1 X128.871 Y113.814 E37.393
G1 X128.871 Y104.104 E37.93257
G1 X128.537 Y104.104 E37.95114
G1 X128.537 Y113.814 E38.49071
G1 X128.202 Y113.814 E38.50928
G1 X128.202 Y104.104 E39.04885
G1 X127.868 Y104.104 E39.06742
G1 X127.868 Y113.814 E39.60699
G1 X127.534 Y113.814 E39.62556
G1 X127.534 Y104.104 E40.16513
G1 X127.2 Y104.104 E40.1837
G1 X127.2 Y113.814 E40.72327
G1 X126.866 Y113.814 E40.74184
G1 X126.866 Y104.104 E41.28141
G1 X126.532 Y104.104 E41.29998
G1 X126.532 Y113.814 E41.83955
G1 X126.198 Y113.814 E41.85812
G1 X126.198 Y104.104 E42.39769
G1 X125.863 Y104.104 E42.41626
G1 X125.863 Y113.814 E42.95583
G1 X125.529 Y113.814 E42.9744
G1 X125.529 Y104.104 E43.51397
G1 X125.195 Y104.104 E43.53254
G1 X125.195 Y113.814 E44.07211
G1 X124.861 Y113.814 E44.09068
G1 X124.861 Y104.104 E44.63025
G1 X124.527 Y104.104 E44.64882
G1 X124.527 Y113.814 E45.18839
G1 X124.193 Y113.814 E45.20696
G1 X124.193 Y104.104 E45.74653
G1 X123.858 Y104.104 E45.7651
G1 X123.858 Y113.814 E46.30467
G1 X123.524 Y113.814 E46.32324
G1 X123.524 Y104.104 E46.86282
G1 X123.502 Y104.104 E46.86405
G1 X123.502 Y106.969 E47.02321
G1 X123.19 Y106.969 E47.04055
G1 X123.19 Y113.814 E47.42096
G1 X122.856 Y113.814 E47.43952
G1 X122.856 Y106.969 E47.81993
G1 X122.522 Y106.969 E47.8385
G1 X122.522 Y113.814 E48.21891
G1 X122.188 Y113.814 E48.23748
G1 X122.188 Y106.969 E48.61788
G1 X121.853 Y106.969 E48.63645
G1 X121.853 Y113.814 E49.01686
G1 X121.519 Y113.814 E49.03543
G1 X121.519 Y106.969 E49.41584
G1 X121.185 Y106.969 E49.43441
G1 X121.185 Y113.814 E49.81481
G1 X120.851 Y113.814 E49.83338
G1 X120.851 Y106.969 E50.21379
G1 X120.517 Y106.969 E50.23236
G1 X120.517 Y113.814 E50.61277
G1 X120.183 Y113.814 E50.63134
G1 X120.183 Y106.969 E51.01174
G1 X119.849 Y106.969 E51.03031
G1 X119.849 Y113.814 E51.41072
G1 X119.514 Y113.814 E51.42929
G1 X119.514 Y106.969 E51.8097
G1 X119.18 Y106.969 E51.82827
G1 X119.18 Y113.814 E52.20867
G1 X118.846 Y113.814 E52.22724
G1 X118.846 Y106.969 E52.60765
G1 X118.512 Y106.969 E52.62622
G1 X118.512 Y113.814 E53.00663
G1 X118.178 Y113.814 E53.0252
G1 X118.178 Y106.969 E53.4056
G1 X117.844 Y106.969 E53.42417
G1 X117.844 Y113.814 E53.80458
G1 X117.509 Y113.814 E53.82315
G1 X117.509 Y109.833 E54.04439
G1 X117.175 Y109.833 E54.06296
G1 X117.175 Y113.814 E54.2842
G1 X116.841 Y113.82 E54.30278
G1 X116.841 Y109.833 E54.52435
G1 X116.507 Y109.833 E54.54292
G1 X116.507 Y113.836 E54.7654
G1 X116.173 Y113.853 E54.784
G1 X116.173 Y109.833 E55.0074
G1 X115.839 Y109.833 E55.02597
G1 X115.839 Y113.901 E55.25206
G1 X115.504 Y113.96 E55.27092
G1 X115.504 Y109.833 E55.50031
G1 X115.17 Y109.833 E55.51888
G1 X115.17 Y114.02 E55.75156
G1 X114.836 Y114.12 E55.77094
G1 X114.836 Y109.833 E56.00917
G1 X114.502 Y109.833 E56.02774
G1 X114.502 Y114.236 E56.27244
G1 X114.168 Y114.394 E56.29298
G1 X114.168 Y109.833 E56.54645
G1 X113.834 Y109.833 E56.56502
G1 X113.834 Y114.552 E56.82727
G1 X113.5 Y114.721 E56.84808
G1 X113.5 Y109.833 E57.11973
G1 X113.165 Y109.833 E57.1383
G1 X113.165 Y114.894 E57.41955
G1 X112.831 Y115.067 E57.44046
G1 X112.831 Y109.833 E57.73131
G1 X112.497 Y109.833 E57.74988
G1 X112.497 Y115.243 E58.05056
G1 X112.163 Y115.523 E58.07476
G1 X112.163 Y109.833 E58.39097
G1 X111.829 Y109.833 E58.40954
G1 X111.829 Y115.811 E58.74175
G1 X111.597 Y116.01 E58.75875
G1 X111.495 Y116.124 E58.76723
G1 X111.495 Y109.833 E59.11682
G1 X111.16 Y109.833 E59.13539
G1 X111.16 Y116.514 E59.50666
G1 X110.826 Y116.931 E59.53639
G1 X110.826 Y109.833 E59.93087
G1 X110.492 Y109.833 E59.94944
G1 X110.492 Y117.43 E60.37161
G1 X110.338 Y117.667 E60.38733
G1 X110.158 Y118.039 E60.41031
G1 X110.158 Y109.833 E60.86633
G1 X109.824 Y109.833 E60.8849
G1 X109.824 Y118.81 E61.38376
G1 X109.793 Y118.902 E61.38914
G1 X109.49 Y118.809 E61.40679
G1 X109.49 Y109.682 E61.91397
G1 E58.91397 F900
G92 E0
G1 X106.864 Y120.739 F7200
G1 E3 F900
;TYPE:Perimeter
;WIDTH:0.42
G1 F750
G1 X106.89 Y121.562 E3.04578
G1 X106.89 Y140.453 E4.09558
G1 X106.846 Y141.281 E4.14164
G1 X106.7 Y142.042 E4.18471
G1 X106.451 Y142.789 E4.22844
G1 X106.107 Y143.494 E4.27208
G1 X105.677 Y144.147 E4.31552
G1 X105.166 Y144.736 E4.35887
G1 X104.573 Y145.251 E4.40251
G1 X103.919 Y145.69 E4.44624
G1 X103.218 Y146.032 E4.48962
G1 X102.472 Y146.281 E4.53332
G1 X101.701 Y146.426 E4.57692
G1 X100.882 Y146.471 E4.62249
G1 X81.711 Y146.471 E5.68784
G1 X80.909 Y146.418 E5.73251
G1 X80.143 Y146.263 E5.77595
G1 X79.403 Y146.014 E5.8193
G1 X78.706 Y145.669 E5.86255
G1 X78.054 Y145.24 E5.90589
G1 X77.472 Y144.726 E5.94905
G1 X76.958 Y144.144 E5.99223
G1 X76.526 Y143.488 E6.03585
G1 X76.173 Y142.79 E6.07932
G1 X75.925 Y142.056 E6.12242
G1 X75.771 Y141.295 E6.16551
G1 X75.727 Y140.483 E6.21073
G1 X75.727 Y121.561 E7.26222
G1 X75.763 Y120.736 E7.3081
G1 X75.9 Y119.961 E7.35188
G1 X76.147 Y119.218 E7.39538
G1 X76.493 Y118.5 E7.43965
G1 X76.919 Y117.844 E7.48316
G1 X77.442 Y117.253 E7.52697
G1 X78.036 Y116.728 E7.57105
G1 X78.693 Y116.292 E7.61488
G1 X79.403 Y115.95 E7.65863
G1 X80.149 Y115.71 E7.70222
G1 X80.93 Y115.564 E7.74636
G1 X81.76 Y115.528 E7.79254
G1 X100.965 Y115.528 E8.85974
G1 X101.593 Y115.559 E8.8947
G1 X102.258 Y115.667 E8.93214
G1 X102.811 Y115.818 E8.96398
G1 X103.465 Y116.127 E9.0042
G1 X104.524 Y116.674 E9.07045
G1 X105.175 Y117.243 E9.11844
G1 X105.7 Y117.846 E9.16291
G1 X106.138 Y118.497 E9.2065
G1 X106.477 Y119.202 E9.24997
G1 X106.718 Y119.959 E9.29411
G1 X106.853 Y120.68 E9.33486
G1 X107.197 Y120.701 F7200
G1 F750
G1 X107.225 Y121.562 E9.38271
G1 X107.225 Y140.462 E10.43301
G1 X107.178 Y141.321 E10.48083
G1 X107.024 Y142.127 E10.52638
G1 X106.761 Y142.915 E10.57258
G1 X106.398 Y143.66 E10.61863
G1 X105.944 Y144.35 E10.66451
G1 X105.402 Y144.973 E10.7104
G1 X104.776 Y145.517 E10.75649
G1 X104.087 Y145.98 E10.80266
G1 X103.344 Y146.342 E10.84854
G1 X102.556 Y146.605 E10.89473
G1 X101.741 Y146.759 E10.94081
G1 X100.891 Y146.806 E10.98812
G1 X81.7 Y146.806 E12.05459
G1 X80.865 Y146.75 E12.10111
G1 X80.056 Y146.586 E12.14697
G1 X79.276 Y146.323 E12.19273
G1 X78.539 Y145.96 E12.23836
G1 X77.851 Y145.507 E12.28416
G1 X77.235 Y144.963 E12.32978
G1 X76.691 Y144.348 E12.37543
G1 X76.237 Y143.656 E12.42142
G1 X75.864 Y142.92 E12.46728
G1 X75.602 Y142.142 E12.51288
G1 X75.439 Y141.338 E12.55849
G1 X75.393 Y140.492 E12.60557
G1 X75.393 Y121.554 E13.65798
G1 X75.43 Y120.7 E13.70547
G1 X75.575 Y119.878 E13.75184
G1 X75.837 Y119.092 E13.79788
G1 X76.201 Y118.336 E13.84452
G1 X76.652 Y117.641 E13.89059
G1 X77.205 Y117.016 E13.93692
G1 X77.832 Y116.462 E13.98344
G1 X78.528 Y116.001 E14.02982
G1 X79.278 Y115.639 E14.07611
G1 X80.067 Y115.385 E14.12217
G1 X80.892 Y115.231 E14.1688
G1 X81.753 Y115.194 E14.21669
G1 X100.973 Y115.194 E15.28475
G1 X101.628 Y115.226 E15.32121
G1 X102.551 Y115.377 E15.37319
G1 X102.936 Y115.508 E15.39579
G1 X103.614 Y115.827 E15.4374
G1 X104.714 Y116.396 E15.50623
G1 X105.412 Y117.006 E15.55773
G1 X105.966 Y117.642 E15.60463
G1 X106.428 Y118.331 E15.65071
G1 X106.788 Y119.078 E15.69682
G1 X107.043 Y119.877 E15.74341
G1 X107.186 Y120.642 E15.78668
G1 X107.53 Y120.664 F7200
;TYPE:External perimeter
G1 F375
G1 X107.559 Y121.562 E15.83659
G1 X107.559 Y140.471 E16.8874
