; generated by PrusaSlicer 2.5.0+win64 on 2022-11-05 at 18:41:07 UTC

; 

; external perimeters extrusion width = 0.45mm
; perimeters extrusion width = 0.45mm
; infill extrusion width = 0.45mm
; solid infill extrusion width = 0.45mm
; top infill extrusion width = 0.45mm
; support material extrusion width = 0.45mm
; first layer extrusion width = 0.42mm

M201 X3000 Y3000 Z100 E10000 ; sets maximum accelerations, mm/sec^2
M203 X150 Y150 Z50 E25 ; sets maximum feedrates, mm / sec
M204 P1000 R1000 T1000 ; sets acceleration (P, T) and retract acceleration (R), mm/sec^2
M205 X10.00 Y10.00 Z0.20 E2.50 ; sets the jerk limits, mm/sec
M205 S0 T0 ; sets the minimum extruding and travel feed rate, mm/sec
M107
;TYPE:Custom
M82 ;absolute extrusion mode
;Start GCode begin
M140 S65   ;Start Warming Bed
M104 S160 ;Preheat Nozzle
G28 ; home all axes
G90 ;absolute positioning
G1 X-10 Y-10 F3000
G1 Z0 F1800
G1 Z5 F5000 ; lift nozzle
M190 S65   ;Wait For Bed Temperature
M109 S210 ;Wait for Hotend Temperature
G92 E0
G1 E10 F200
G1 E-2 F300
G92 E0
;Start GCode end
G1 F3600 E-2
G21 ; set units to millimeters
G90 ; use absolute coordinates
M82 ; use absolute distances for extrusion
G92 E0
; Filament gcode
M107
;LAYER_CHANGE
;Z:0.4
;HEIGHT:0.4
G1 E-3 F900
G92 E0
G1 Z.4 F7200
G1 X95.207 Y104.582
G1 E3 F900
;TYPE:Skirt/Brim
;WIDTH:0.42
G1 F750
G1 X96.221 Y103.991 E3.06522
G1 X110.542 Y98.263 E3.92234
G1 X119.355 Y95.318 E4.43872
G1 X120.62 Y95.112 E4.50998
G1 X132.293 Y95.112 E5.15862
G1 X134.027 Y95.507 E5.25743
G1 X135.418 Y96.614 E5.35625
G1 X136.193 Y98.215 E5.45507
G1 X136.295 Y99.115 E5.50539
G1 X136.295 Y110.787 E6.15403
G1 X135.578 Y139.125 E7.72929
G1 X135.478 Y140.035 E7.78016
G1 X135.206 Y141.359 E7.85531
G1 X134.778 Y142.666 E7.93175
G1 X134.19 Y143.925 E8.00894
G1 X133.444 Y145.115 E8.08698
G1 X132.106 Y146.632 E8.19941
G1 X131.126 Y147.452 E8.2704
G1 X129.89 Y148.275 E8.35289
G1 X128.527 Y148.905 E8.43633
G1 X127.627 Y149.195 E8.4889
G1 X125.766 Y149.559 E8.59427
G1 X124.6 Y149.627 E8.65918
G1 X105.4 Y149.627 E9.72616
G1 X104.277 Y149.571 E9.78861
G1 X102.857 Y149.338 E9.8686
G1 X101.473 Y148.925 E9.94889
G1 X100.11 Y148.295 E10.03234
G1 X98.948 Y147.58 E10.10813
G1 X98.271 Y147.037 E10.15635
G1 X97.478 Y146.23 E10.21918
G1 X96.158 Y144.634 E10.33431
G1 X95.704 Y143.911 E10.38176
G1 X95.303 Y143.091 E10.43248
G1 X95.002 Y142.242 E10.48252
G1 X94.52 Y140.006 E10.60966
G1 X94.399 Y138.782 E10.67797
G1 X93.705 Y116.906 E11.89429
G1 X93.705 Y107.707 E12.40547
G1 X94.1 Y105.973 E12.50428
G1 X95.169 Y104.629 E12.59976
G1 X95.442 Y104.86 F7200
G1 F750
G1 X95.532 Y104.753 E12.6075
G1 X96.345 Y104.301 E12.65918
G1 X110.666 Y98.573 E13.5163
G1 X119.46 Y95.635 E14.03159
G1 X120.62 Y95.446 E14.0969
G1 X132.293 Y95.446 E14.74554
G1 X133.948 Y95.841 E14.84009
G1 X135.247 Y96.94 E14.93463
G1 X135.961 Y99.115 E15.06185
G1 X135.96 Y110.878 E15.71555
G1 X135.246 Y139.088 E17.2837
G1 X135.146 Y139.998 E17.33458
G1 X134.88 Y141.286 E17.40768
G1 X134.462 Y142.556 E17.48196
G1 X133.89 Y143.777 E17.5569
G1 X133.165 Y144.931 E17.63265
G1 X131.888 Y146.379 E17.7399
G1 X130.932 Y147.18 E17.80923
G1 X129.741 Y147.976 E17.88883
G1 X128.425 Y148.587 E17.96945
G1 X127.525 Y148.877 E18.02202
G1 X125.744 Y149.225 E18.12285
G1 X124.6 Y149.293 E18.18653
G1 X105.4 Y149.293 E19.2535
G1 X104.296 Y149.238 E19.31493
G1 X102.919 Y149.01 E19.39248
G1 X101.575 Y148.607 E19.47046
G1 X100.259 Y147.996 E19.55108
G1 X99.128 Y147.298 E19.62494
G1 X98.508 Y146.8 E19.66914
G1 X97.731 Y146.011 E19.73067
G1 X96.42 Y144.427 E19.84491
G1 X96.004 Y143.764 E19.88841
G1 X95.327 Y142.167 E19.98483
G1 X94.853 Y139.97 E20.10973
G1 X94.733 Y138.772 E20.17663
G1 X94.039 Y116.906 E21.39236
G1 X94.039 Y107.707 E21.90353
G1 X94.433 Y106.052 E21.99808
G1 X95.403 Y104.905 E22.08155
G1 X95.731 Y105.272 F7200
G1 F750
G1 X96.469 Y104.612 E22.13656
G1 X110.79 Y98.883 E22.99368
G1 X119.566 Y95.952 E23.50788
G1 X120.62 Y95.781 E23.56724
G1 X132.293 Y95.781 E24.21588
G1 X133.865 Y96.175 E24.30596
G1 X135.066 Y97.263 E24.39603
G1 X135.627 Y99.115 E24.50353
G1 X135.626 Y110.87 E25.15677
G1 X134.914 Y139.051 E26.72334
G1 X134.813 Y139.961 E26.77422
G1 X134.554 Y141.213 E26.84527
G1 X134.147 Y142.446 E26.9174
G1 X133.591 Y143.63 E26.99009
G1 X132.886 Y144.748 E27.06354
G1 X131.671 Y146.125 E27.16561
G1 X130.738 Y146.908 E27.23329
G1 X129.592 Y147.677 E27.30999
G1 X128.323 Y148.269 E27.38779
G1 X127.422 Y148.559 E27.44036
G1 X125.722 Y148.892 E27.53666
G1 X124.6 Y148.959 E27.5991
G1 X105.4 Y148.959 E28.66607
G1 X104.314 Y148.904 E28.72646
G1 X102.981 Y148.681 E28.80159
G1 X101.677 Y148.289 E28.87725
G1 X100.408 Y147.697 E28.95505
G1 X99.307 Y147.016 E29.02699
G1 X98.744 Y146.564 E29.06716
G1 X97.983 Y145.792 E29.12738
G1 X96.683 Y144.22 E29.24074
G1 X96.304 Y143.618 E29.28027
G1 X95.653 Y142.091 E29.37253
G1 X95.185 Y139.934 E29.49518
G1 X95.067 Y138.761 E29.56068
G1 X94.373 Y116.906 E30.77582
G1 X94.373 Y107.707 E31.28699
G1 X94.767 Y106.135 E31.37706
G1 X95.687 Y105.312 E31.44565
G1 E28.44565 F900
G92 E0
G1 X132.293 Y110.787 F7200
G1 E3 F900
;TYPE:Support material
G1 F750
G1 X126.564 Y110.787 E3.31833
G1 X126.564 Y112.531 E3.41522
G1 X125.564 Y112.334 E3.47188
G1 X124.606 Y112.29 E3.52519
G1 X105.295 Y112.29 E4.5983
G1 X104.437 Y112.334 E4.64605
G1 X103.51 Y112.499 E4.69839
G1 X102.953 Y112.675 E4.73084
G1 X102.205 Y113.036 E4.777
G1 X100.935 Y113.688 E4.85629
G1 X100.103 Y114.406 E4.91736
G1 X99.444 Y115.174 E4.9736
G1 X98.915 Y115.983 E5.02732
G1 X98.502 Y116.838 E5.08006
G1 X98.406 Y117.115 E5.09637
G1 X97.707 Y116.906 E5.13692
G1 X97.707 Y107.707 E5.64809
G1 X106.3 Y107.707 E6.12558
G1 X106.3 Y104.843 E6.28475
G1 X112.028 Y104.843 E6.60308
G1 X112.028 Y101.979 E6.76224
G1 X120.62 Y101.979 E7.23973
G1 X120.62 Y99.115 E7.3989
G1 X132.293 Y99.115 E8.04754
G1 X132.293 Y110.737 E8.69339
G1 X131.875 Y110.637 F7200
G1 F750
G1 X131.875 Y99.415 E9.31696
G1 X131.541 Y99.415 E9.33553
G1 X131.541 Y110.486 E9.95074
G1 X131.207 Y110.486 E9.96931
G1 X131.207 Y99.415 E10.58453
G1 X130.873 Y99.415 E10.6031
G1 X130.873 Y110.486 E11.21831
G1 X130.538 Y110.486 E11.23688
G1 X130.538 Y99.415 E11.8521
G1 X130.204 Y99.415 E11.87067
G1 X130.204 Y110.486 E12.48588
G1 X129.87 Y110.486 E12.50445
G1 X129.87 Y99.415 E13.11966
G1 X129.536 Y99.415 E13.13823
G1 X129.536 Y110.486 E13.75345
G1 X129.202 Y110.486 E13.77202
G1 X129.202 Y99.415 E14.38723
G1 X128.868 Y99.415 E14.4058
G1 X128.868 Y110.486 E15.02102
G1 X128.533 Y110.486 E15.03959
G1 X128.533 Y99.415 E15.6548
G1 X128.199 Y99.415 E15.67337
G1 X128.199 Y110.486 E16.28858
G1 X127.865 Y110.486 E16.30715
G1 X127.865 Y99.415 E16.92237
G1 X127.531 Y99.415 E16.94094
G1 X127.531 Y110.486 E17.55615
G1 X127.197 Y110.486 E17.57472
G1 X127.197 Y99.415 E18.18994
G1 X126.863 Y99.415 E18.20851
G1 X126.863 Y110.486 E18.82372
G1 X126.528 Y110.486 E18.84229
G1 X126.528 Y99.415 E19.45751
G1 X126.194 Y99.415 E19.47607
G1 X126.194 Y112.147 E20.1836
G1 X125.86 Y112.084 E20.2025
G1 X125.86 Y99.415 E20.90652
G1 X125.526 Y99.415 E20.92509
G1 X125.526 Y112.03 E21.62607
G1 X125.192 Y112.017 E21.64465
G1 X125.192 Y99.415 E22.34496
G1 X124.858 Y99.415 E22.36353
G1 X124.858 Y112.001 E23.0629
G1 X124.523 Y111.989 E23.08148
G1 X124.523 Y99.415 E23.78021
G1 X124.189 Y99.415 E23.79878
G1 X124.189 Y111.989 E24.49752
G1 X123.855 Y111.989 E24.51609
G1 X123.855 Y99.415 E25.21482
G1 X123.521 Y99.415 E25.23339
G1 X123.521 Y111.989 E25.93213
G1 X123.187 Y111.989 E25.9507
G1 X123.187 Y99.415 E26.64943
G1 X122.853 Y99.415 E26.668
G1 X122.853 Y111.989 E27.36674
G1 X122.519 Y111.989 E27.38531
G1 X122.519 Y99.415 E28.08404
G1 X122.184 Y99.415 E28.10261
G1 X122.184 Y111.989 E28.80134
G1 X121.85 Y111.989 E28.81991
G1 X121.85 Y99.415 E29.51865
G1 X121.516 Y99.415 E29.53722
G1 X121.516 Y111.989 E30.23595
G1 X121.182 Y111.989 E30.25452
G1 X121.182 Y99.415 E30.95326
G1 X120.921 Y99.415 E30.96774
G1 X120.921 Y102.28 E31.12691
G1 X120.848 Y102.28 E31.13099
G1 X120.848 Y111.989 E31.67056
G1 X120.514 Y111.989 E31.68913
G1 X120.514 Y102.28 E32.2287
G1 X120.179 Y102.28 E32.24727
G1 X120.179 Y111.989 E32.78684
G1 X119.845 Y111.989 E32.80541
G1 X119.845 Y102.28 E33.34498
G1 X119.511 Y102.28 E33.36355
G1 X119.511 Y111.989 E33.90312
G1 X119.177 Y111.989 E33.92169
G1 X119.177 Y102.28 E34.46126
G1 X118.843 Y102.28 E34.47983
G1 X118.843 Y111.989 E35.0194
G1 X118.509 Y111.989 E35.03797
G1 X118.509 Y102.28 E35.57754
G1 X118.174 Y102.28 E35.59611
G1 X118.174 Y111.989 E36.13569
G1 X117.84 Y111.989 E36.15425
G1 X117.84 Y102.28 E36.69383
G1 X117.506 Y102.28 E36.7124
G1 X117.506 Y111.989 E37.25197
G1 X117.172 Y111.989 E37.27054
G1 X117.172 Y102.28 E37.81011
G1 X116.838 Y102.28 E37.82868
G1 X116.838 Y111.989 E38.36825
G1 X116.504 Y111.989 E38.38682
G1 X116.504 Y102.28 E38.92639
G1 X116.17 Y102.28 E38.94496
G1 X116.17 Y111.989 E39.48453
G1 X115.835 Y111.989 E39.5031
G1 X115.835 Y102.28 E40.04267
G1 X115.501 Y102.28 E40.06124
G1 X115.501 Y111.989 E40.60081
G1 X115.167 Y111.989 E40.61938
G1 X115.167 Y102.28 E41.15895
G1 X114.833 Y102.28 E41.17752
G1 X114.833 Y111.989 E41.71709
G1 X114.499 Y111.989 E41.73566
G1 X114.499 Y102.28 E42.27523
G1 X114.165 Y102.28 E42.2938
G1 X114.165 Y111.989 E42.83337
G1 X113.83 Y111.989 E42.85194
G1 X113.83 Y102.28 E43.39151
G1 X113.496 Y102.28 E43.41008
G1 X113.496 Y111.989 E43.94965
G1 X113.162 Y111.989 E43.96822
G1 X113.162 Y102.28 E44.50779
G1 X112.828 Y102.28 E44.52636
G1 X112.828 Y111.989 E45.06593
G1 X112.494 Y111.989 E45.0845
G1 X112.494 Y102.28 E45.62407
G1 X112.329 Y102.28 E45.63324
G1 X112.329 Y105.144 E45.79241
G1 X112.16 Y105.144 E45.80181
G1 X112.16 Y111.989 E46.18221
G1 X111.825 Y111.989 E46.20078
G1 X111.825 Y105.144 E46.58119
G1 X111.491 Y105.144 E46.59976
G1 X111.491 Y111.989 E46.98017
G1 X111.157 Y111.989 E46.99873
G1 X111.157 Y105.144 E47.37914
G1 X110.823 Y105.144 E47.39771
G1 X110.823 Y111.989 E47.77812
G1 X110.489 Y111.989 E47.79669
G1 X110.489 Y105.144 E48.17709
G1 X110.155 Y105.144 E48.19566
G1 X110.155 Y111.989 E48.57607
G1 X109.82 Y111.989 E48.59464
G1 X109.82 Y105.144 E48.97505
G1 X109.486 Y105.144 E48.99362
G1 X109.486 Y111.989 E49.37402
G1 X109.152 Y111.989 E49.39259
G1 X109.152 Y105.144 E49.773
G1 X108.818 Y105.144 E49.79157
G1 X108.818 Y111.989 E50.17198
G1 X108.484 Y111.989 E50.19055
G1 X108.484 Y105.144 E50.57095
G1 X108.15 Y105.144 E50.58952
G1 X108.15 Y111.989 E50.96993
G1 X107.816 Y111.989 E50.9885
G1 X107.816 Y105.144 E51.36891
G1 X107.481 Y105.144 E51.38748
G1 X107.481 Y111.989 E51.76788
G1 X107.147 Y111.989 E51.78645
G1 X107.147 Y105.144 E52.16686
G1 X106.813 Y105.144 E52.18543
G1 X106.813 Y111.989 E52.56584
G1 X106.479 Y111.989 E52.5844
G1 X106.479 Y108.008 E52.80565
G1 X106.145 Y108.008 E52.82422
G1 X106.145 Y111.989 E53.04546
G1 X105.811 Y111.989 E53.06403
G1 X105.811 Y108.008 E53.28527
G1 X105.476 Y108.008 E53.30384
G1 X105.476 Y111.989 E53.52509
G1 X105.142 Y111.996 E53.54366
G1 X105.142 Y108.008 E53.76529
G1 X104.808 Y108.008 E53.78386
G1 X104.808 Y112.013 E54.00642
G1 X104.474 Y112.03 E54.02501
G1 X104.474 Y108.008 E54.2485
G1 X104.14 Y108.008 E54.26707
G1 X104.14 Y112.082 E54.49345
G1 X103.806 Y112.141 E54.51231
G1 X103.806 Y108.008 E54.742
G1 X103.471 Y108.008 E54.76057
G1 X103.471 Y112.201 E54.99356
G1 X103.137 Y112.301 E55.01294
G1 X103.137 Y108.008 E55.25149
G1 X102.803 Y108.008 E55.27006
G1 X102.803 Y112.411 E55.51476
G1 X102.469 Y112.574 E55.5354
G1 X102.469 Y108.008 E55.78912
G1 X102.135 Y108.008 E55.80769
G1 X102.135 Y112.736 E56.07042
G1 X101.801 Y112.904 E56.09121
G1 X101.801 Y108.008 E56.36331
G1 X101.467 Y108.008 E56.38188
G1 X101.467 Y113.074 E56.66341
G1 X101.132 Y113.244 E56.68424
G1 X101.132 Y108.008 E56.97521
G1 X100.798 Y108.008 E56.99378
G1 X100.798 Y113.418 E57.29444
G1 X100.464 Y113.698 E57.31865
G1 X100.464 Y108.008 E57.63485
G1 X100.13 Y108.008 E57.65342
G1 X100.13 Y113.986 E57.98564
G1 X99.898 Y114.186 E58.00263
G1 X99.796 Y114.299 E58.01113
G1 X99.796 Y108.008 E58.36075
G1 X99.462 Y108.008 E58.37932
G1 X99.462 Y114.69 E58.75062
G1 X99.226 Y114.964 E58.77071
G1 X99.127 Y115.109 E58.78047
G1 X99.127 Y108.008 E59.17509
G1 X98.793 Y108.008 E59.19366
G1 X98.793 Y115.617 E59.61651
G1 X98.648 Y115.843 E59.63144
G1 X98.459 Y116.235 E59.65563
G1 X98.459 Y108.008 E60.11284
G1 X98.125 Y108.008 E60.13141
G1 X98.125 Y116.874 E60.6241
G1 E57.6241 F900
G92 E0
G1 X101.747 Y114.855 F7200
G1 E3 F900
;TYPE:Perimeter
;WIDTH:0.42
G1 F750
G1 X103.285 Y114.086 E3.09559
G1 X103.836 Y113.877 E3.12833
G1 X104.61 Y113.739 E3.17203
G1 X105.325 Y113.703 E3.21179
G1 X124.658 Y113.707 E4.28617
G1 X125.387 Y113.739 E4.32672
G1 X126.163 Y113.886 E4.3706
G1 X126.934 Y114.126 E4.41545
G1 X127.617 Y114.467 E4.4579
G1 X128.312 Y114.911 E4.50373
G1 X128.906 Y115.428 E4.5475
G1 X129.416 Y116.015 E4.59073
G1 X129.845 Y116.676 E4.6345
G1 X130.194 Y117.398 E4.67907
G1 X130.439 Y118.11 E4.72094
G1 X130.583 Y119.419 E4.7941
G1 X130.622 Y120.12 E4.83312
G1 X130.622 Y138.631 E5.86178
G1 X130.533 Y139.434 E5.90667
G1 X130.358 Y140.216 E5.95119
G1 X130.096 Y140.966 E5.99534
G1 X129.749 Y141.668 E6.03885
G1 X129.321 Y142.319 E6.08218
G1 X128.811 Y142.897 E6.12498
G1 X128.196 Y143.424 E6.17
G1 X127.594 Y143.854 E6.21113
G1 X126.929 Y144.187 E6.25242
G1 X126.153 Y144.437 E6.29773
G1 X125.371 Y144.593 E6.34209
G1 X124.567 Y144.647 E6.38682
G1 X105.427 Y144.647 E7.45046
G1 X104.618 Y144.602 E7.4955
G1 X103.842 Y144.455 E7.53939
G1 X103.071 Y144.207 E7.58441
G1 X102.383 Y143.863 E7.62714
G1 X101.716 Y143.437 E7.6711
G1 X101.215 Y142.937 E7.71043
G1 X100.654 Y142.291 E7.75802
G1 X100.133 Y141.631 E7.80469
G1 X99.829 Y141.007 E7.84329
G1 X99.466 Y139.413 E7.93412
G1 X99.378 Y138.602 E7.97947
G1 X99.378 Y119.662 E9.03197
G1 X99.56 Y118.112 E9.11873
G1 X99.807 Y117.387 E9.1613
G1 X100.153 Y116.668 E9.20561
G1 X100.584 Y116.014 E9.24911
G1 X101.095 Y115.417 E9.29279
G1 X101.701 Y114.894 E9.33729
G1 X101.56 Y114.575 F7200
G1 F750
G1 X103.136 Y113.787 E9.43519
G1 X103.755 Y113.552 E9.47203
G1 X104.572 Y113.406 E9.51814
G1 X105.316 Y113.369 E9.55954
G1 X124.666 Y113.373 E10.63479
G1 X125.426 Y113.407 E10.67708
G1 X126.244 Y113.561 E10.72335
G1 X127.059 Y113.815 E10.77078
G1 X127.782 Y114.176 E10.8157
G1 X128.513 Y114.642 E10.86389
G1 X129.143 Y115.191 E10.91033
G1 X129.684 Y115.814 E10.95615
G1 X130.137 Y116.512 E11.00239
G1 X130.503 Y117.271 E11.04923
G1 X130.767 Y118.037 E11.09427
G1 X130.915 Y119.383 E11.1695
G1 X130.956 Y120.12 E11.21056
G1 X130.956 Y138.649 E12.24024
G1 X130.863 Y139.489 E12.28717
G1 X130.68 Y140.308 E12.3338
G1 X130.404 Y141.095 E12.38016
G1 X130.04 Y141.834 E12.42595
G1 X129.587 Y142.523 E12.47175
G1 X129.046 Y143.135 E12.51715
G1 X128.403 Y143.687 E12.56428
G1 X127.767 Y144.141 E12.60769
G1 X127.056 Y144.497 E12.65186
G1 X126.238 Y144.761 E12.69964
G1 X125.415 Y144.925 E12.74628
G1 X124.579 Y144.981 E12.79284
G1 X105.418 Y144.981 E13.85762
G1 X104.578 Y144.934 E13.90439
G1 X103.759 Y144.78 E13.95066
G1 X102.944 Y144.517 E13.99827
G1 X102.218 Y144.154 E14.04337
G1 X101.506 Y143.7 E14.09032
G1 X100.971 Y143.165 E14.13233
G1 X100.396 Y142.504 E14.18102
G1 X99.849 Y141.81 E14.23012
G1 X99.511 Y141.119 E14.27286
G1 X99.136 Y139.469 E14.36692
G1 X99.044 Y138.62 E14.41435
G1 X99.044 Y119.643 E15.46893
G1 X99.232 Y118.038 E15.55875
G1 X99.497 Y117.26 E15.60442
G1 X99.862 Y116.503 E15.65109
G1 X100.316 Y115.813 E15.697
G1 X100.857 Y115.181 E15.74325
G1 X101.514 Y114.614 E15.79147
G1 X101.373 Y114.295 F7200
;TYPE:External perimeter
G1 F375
G1 X103.217 Y113.373 E15.90601
G1 X103.675 Y113.227 E15.93273
G1 X104.535 Y113.074 E15.98126
G1 X105.308 Y113.035 E16.02429
G1 X124.673 Y113.039 E17.10042
G1 X125.464 Y113.074 E17.14444
G1 X126.325 Y113.236 E17.19311
G1 X127.184 Y113.503 E17.24311
G1 X127.947 Y113.885 E17.29051
G1 X128.714 Y114.374 E17.34105
G1 X129.38 Y114.955 E17.39017
G1 X129.952 Y115.612 E17.43857
G1 X130.429 Y116.347 E17.48729
G1 X130.813 Y117.143 E17.5364
G1 X131.096 Y117.963 E17.5846
G1 X131.248 Y119.346 E17.6619
G1 X131.29 Y120.12 E17.70499
G1 X131.29 Y138.668 E18.7357
G1 X131.193 Y139.544 E18.78468
G1 X131.002 Y140.4 E18.83341
G1 X130.713 Y141.225 E18.88199
