; generated by PrusaSlicer 2.5.0+win64 on 2022-11-05 at 18:33:24 UTC

; 

; external perimeters extrusion width = 0.45mm
; perimeters extrusion width = 0.45mm
; infill extrusion width = 0.45mm
; solid infill extrusion width = 0.45mm
; top infill extrusion width = 0.45mm
; support material extrusion width = 0.45mm
; first layer extrusion width = 0.42mm

M201 X3000 Y3000 Z100 E10000 ; sets maximum accelerations, mm/sec^2
M203 X150 Y150 Z50 E25 ; sets maximum feedrates, mm / sec
M204 P1000 R1000 T1000 ; sets acceleration (P, T) and retract acceleration (R), mm/sec^2
M205 X10.00 Y10.00 Z0.20 E2.50 ; sets the jerk limits, mm/sec
M205 S0 T0 ; sets the minimum extruding and travel feed rate, mm/sec
M107
;TYPE:Custom
M82 ;absolute extrusion mode
;Start GCode begin
M140 S65   ;Start Warming Bed
M104 S160 ;Preheat Nozzle
G28 ; home all axes
G90 ;absolute positioning
G1 X-10 Y-10 F3000
G1 Z0 F1800
G1 Z5 F5000 ; lift nozzle
M190 S65   ;Wait For Bed Temperature
M109 S210 ;Wait for Hotend Temperature
G92 E0
G1 E10 F200
G1 E-2 F300
G92 E0
;Start GCode end
G1 F3600 E-2
G21 ; set units to millimeters
G90 ; use absolute coordinates
M82 ; use absolute distances for extrusion
G92 E0
; Filament gcode
M107
;LAYER_CHANGE
;Z:0.4
;HEIGHT:0.4
G1 E-3 F900
G92 E0
G1 Z.4 F7200
G1 X90.653 Y93.693
G1 E3 F900
;TYPE:Skirt/Brim
;WIDTH:0.42
G1 F750
G1 X92.253 Y92.918 E3.09882
G1 X93.153 Y92.815 E3.14914
G1 X104.825 Y92.815 E3.79778
G1 X106.091 Y93.021 E3.86904
G1 X114.904 Y95.966 E4.38542
G1 X129.225 Y101.694 E5.24255
G1 X130.688 Y102.705 E5.34136
G1 X131.569 Y104.249 E5.44018
G1 X131.741 Y105.41 E5.50539
G1 X131.739 Y114.78 E6.02608
G1 X131.011 Y136.492 E7.23332
G1 X130.957 Y137.494 E7.28909
G1 X130.724 Y138.921 E7.3694
G1 X130.293 Y140.317 E7.45061
G1 X129.7 Y141.611 E7.52971
G1 X128.913 Y142.851 E7.61132
G1 X128.012 Y143.934 E7.68959
G1 X126.926 Y144.929 E7.77147
G1 X125.772 Y145.741 E7.8499
G1 X124.478 Y146.415 E7.93097
G1 X123.117 Y146.905 E8.01133
G1 X121.711 Y147.21 E8.09129
G1 X120.041 Y147.331 E8.18434
G1 X100.821 Y147.331 E9.25239
G1 X99.648 Y147.262 E9.31773
G1 X98.228 Y147.011 E9.39784
G1 X96.882 Y146.591 E9.47617
G1 X95.578 Y145.986 E9.55604
G1 X94.381 Y145.228 E9.63478
G1 X93.286 Y144.319 E9.7139
G1 X92.298 Y143.241 E9.79516
G1 X91.487 Y142.088 E9.87349
G1 X90.823 Y140.822 E9.95295
G1 X90.328 Y139.467 E10.03308
G1 X90.018 Y138.09 E10.11152
G1 X89.88 Y136.492 E10.20064
G1 X89.152 Y108.595 E11.75148
G1 X89.15 Y96.818 E12.40592
G1 X89.545 Y95.084 E12.50474
G1 X90.615 Y93.739 E12.60022
G1 X90.888 Y93.97 F7200
G1 F750
G1 X90.978 Y93.864 E12.60796
G1 X93.153 Y93.15 E12.73518
G1 X104.825 Y93.15 E13.38382
G1 X105.985 Y93.338 E13.44912
G1 X114.78 Y96.276 E13.96442
G1 X129.101 Y102.004 E14.82154
G1 X130.491 Y102.985 E14.91609
G1 X131.289 Y104.488 E15.01063
G1 X131.407 Y105.41 E15.06231
G1 X131.405 Y114.769 E15.58237
G1 X130.677 Y136.481 E16.78961
G1 X130.624 Y137.476 E16.845
G1 X130.396 Y138.859 E16.92286
G1 X129.977 Y140.21 E17.00149
G1 X129.399 Y141.464 E17.07822
G1 X128.635 Y142.664 E17.15726
G1 X127.76 Y143.714 E17.23324
G1 X126.707 Y144.677 E17.31252
G1 X125.585 Y145.464 E17.38865
G1 X124.331 Y146.115 E17.46718
G1 X123.012 Y146.588 E17.54509
G1 X121.648 Y146.881 E17.62257
G1 X120.041 Y146.996 E17.71213
G1 X100.821 Y146.996 E18.78018
G1 X99.67 Y146.928 E18.8443
G1 X98.294 Y146.684 E18.92193
G1 X96.989 Y146.274 E18.99793
G1 X95.726 Y145.687 E19.07532
G1 X94.567 Y144.95 E19.15167
G1 X93.505 Y144.067 E19.22842
G1 X92.55 Y143.022 E19.30708
G1 X91.765 Y141.902 E19.38311
G1 X91.123 Y140.674 E19.46013
G1 X90.645 Y139.36 E19.53778
G1 X90.346 Y138.024 E19.61388
G1 X90.214 Y136.484 E19.69979
G1 X89.486 Y108.586 E21.25063
G1 X89.485 Y96.818 E21.90459
G1 X89.879 Y95.163 E21.99913
G1 X90.849 Y94.016 E22.0826
G1 X91.112 Y94.254 F7200
G1 F750
G1 X91.302 Y94.045 E22.09831
G1 X93.153 Y93.484 E22.20581
G1 X104.825 Y93.484 E22.85445
G1 X105.88 Y93.655 E22.9138
G1 X114.656 Y96.586 E23.42801
G1 X128.977 Y102.315 E24.28513
G1 X130.29 Y103.264 E24.3752
G1 X131.073 Y105.41 E24.50213
G1 X131.071 Y114.758 E25.02158
G1 X130.343 Y136.47 E26.22882
G1 X130.29 Y137.458 E26.28383
G1 X130.067 Y138.797 E26.35922
G1 X129.66 Y140.104 E26.43529
G1 X129.099 Y141.318 E26.50964
G1 X128.358 Y142.478 E26.58612
G1 X127.508 Y143.495 E26.6598
G1 X126.488 Y144.425 E26.73649
G1 X125.399 Y145.186 E26.81032
G1 X124.184 Y145.814 E26.88631
G1 X122.906 Y146.271 E26.96176
G1 X121.586 Y146.553 E27.03678
G1 X120.041 Y146.662 E27.12284
G1 X100.821 Y146.662 E28.19089
G1 X99.692 Y146.595 E28.25378
G1 X98.36 Y146.356 E28.32893
G1 X97.096 Y145.958 E28.40261
G1 X95.874 Y145.387 E28.47752
G1 X94.752 Y144.672 E28.55148
G1 X93.724 Y143.815 E28.62587
G1 X92.803 Y142.803 E28.70191
G1 X92.042 Y141.715 E28.77565
G1 X91.422 Y140.525 E28.85023
G1 X90.962 Y139.254 E28.92539
G1 X90.673 Y137.958 E28.99916
G1 X90.548 Y136.475 E29.08186
G1 X89.82 Y108.577 E30.6327
G1 X89.819 Y96.818 E31.28617
G1 X90.213 Y95.246 E31.37625
G1 X91.072 Y94.299 E31.44728
G1 E28.44728 F900
G92 E0
G1 X104.825 Y99.682 F7200
G1 E3 F900
;TYPE:Support material
G1 F750
G1 X113.418 Y99.682 E3.47749
G1 X113.418 Y102.546 E3.63666
G1 X119.146 Y102.546 E3.95498
G1 X119.146 Y105.41 E4.11415
G1 X127.739 Y105.41 E4.59164
G1 X127.739 Y114.646 E5.10487
G1 X127.026 Y114.859 E5.14621
G1 X126.919 Y114.542 E5.16481
G1 X126.492 Y113.661 E5.21922
G1 X125.959 Y112.853 E5.27302
G1 X125.306 Y112.109 E5.32802
G1 X124.433 Y111.363 E5.39181
G1 X123.227 Y110.74 E5.46725
G1 X122.486 Y110.389 E5.51282
G1 X121.933 Y110.203 E5.54525
G1 X121.004 Y110.037 E5.5977
G1 X120.136 Y109.993 E5.64599
G1 X100.866 Y109.993 E6.71686
G1 X99.887 Y110.038 E6.77133
G1 X98.881 Y110.235 E6.82827
G1 X98.881 Y108.49 E6.92526
G1 X93.153 Y108.49 E7.24359
G1 X93.153 Y96.818 E7.89223
G1 X104.825 Y96.818 E8.54087
G1 X104.825 Y99.632 E8.69725
G1 E5.69725 F900
G92 E0
G1 X127.321 Y114.614 F7200
G1 E3 F900
G1 F750
G1 X127.321 Y105.711 E3.49475
G1 X126.987 Y105.711 E3.51332
G1 X126.987 Y113.989 E3.97333
G1 X126.773 Y113.546 E4.00063
G1 X126.652 Y113.357 E4.01311
G1 X126.652 Y105.711 E4.43801
G1 X126.318 Y105.711 E4.45658
G1 X126.318 Y112.849 E4.85325
G1 X126.192 Y112.663 E4.86574
G1 X125.984 Y112.425 E4.88332
G1 X125.984 Y105.711 E5.25642
G1 X125.65 Y105.711 E5.27498
G1 X125.65 Y112.042 E5.62678
G1 X125.511 Y111.888 E5.63829
G1 X125.316 Y111.72 E5.65263
G1 X125.316 Y105.711 E5.98653
G1 X124.982 Y105.711 E6.00509
G1 X124.982 Y111.431 E6.32298
G1 X124.647 Y111.145 E6.34742
G1 X124.647 Y105.711 E6.6494
G1 X124.313 Y105.711 E6.66797
G1 X124.313 Y110.963 E6.95982
G1 X123.979 Y110.79 E6.98072
G1 X123.979 Y105.711 E7.26296
G1 X123.645 Y105.711 E7.28153
G1 X123.645 Y110.617 E7.55418
G1 X123.311 Y110.447 E7.57503
G1 X123.311 Y105.711 E7.83818
G1 X122.977 Y105.711 E7.85675
G1 X122.977 Y110.289 E8.11113
G1 X122.642 Y110.131 E8.13167
G1 X122.642 Y105.711 E8.37728
G1 X122.308 Y105.711 E8.39584
G1 X122.308 Y110.01 E8.63474
G1 X121.974 Y109.905 E8.65421
G1 X121.974 Y105.711 E8.88725
G1 X121.64 Y105.711 E8.90582
G1 X121.64 Y109.845 E9.13555
G1 X121.306 Y109.786 E9.15441
G1 X121.306 Y105.711 E9.38084
G1 X120.972 Y105.711 E9.39941
G1 X120.972 Y109.733 E9.62291
G1 X120.638 Y109.716 E9.64151
G1 X120.638 Y105.711 E9.86409
G1 X120.303 Y105.711 E9.88266
G1 X120.303 Y109.7 E10.10433
G1 X119.969 Y109.692 E10.1229
G1 X119.969 Y105.711 E10.34414
G1 X119.635 Y105.711 E10.36271
G1 X119.635 Y109.692 E10.58396
G1 X119.301 Y109.692 E10.60253
G1 X119.301 Y105.711 E10.82377
G1 X118.967 Y105.711 E10.84234
G1 X118.967 Y109.692 E11.06358
G1 X118.633 Y109.692 E11.08215
G1 X118.633 Y102.847 E11.46256
G1 X118.298 Y102.847 E11.48113
G1 X118.298 Y109.692 E11.86153
G1 X117.964 Y109.692 E11.8801
G1 X117.964 Y102.847 E12.26051
G1 X117.63 Y102.847 E12.27908
G1 X117.63 Y109.692 E12.65949
G1 X117.296 Y109.692 E12.67806
G1 X117.296 Y102.847 E13.05846
G1 X116.962 Y102.847 E13.07703
G1 X116.962 Y109.692 E13.45744
G1 X116.628 Y109.692 E13.47601
G1 X116.628 Y102.847 E13.85642
G1 X116.293 Y102.847 E13.87499
G1 X116.293 Y109.692 E14.25539
G1 X115.959 Y109.692 E14.27396
G1 X115.959 Y102.847 E14.65437
G1 X115.625 Y102.847 E14.67294
G1 X115.625 Y109.692 E15.05335
G1 X115.291 Y109.692 E15.07192
G1 X115.291 Y102.847 E15.45232
G1 X114.957 Y102.847 E15.47089
G1 X114.957 Y109.692 E15.8513
G1 X114.623 Y109.692 E15.86987
G1 X114.623 Y102.847 E16.25028
G1 X114.289 Y102.847 E16.26884
G1 X114.289 Y109.692 E16.64925
G1 X113.954 Y109.692 E16.66782
G1 X113.954 Y102.847 E17.04823
G1 X113.62 Y102.847 E17.0668
G1 X113.62 Y109.692 E17.4472
G1 X113.286 Y109.692 E17.46577
G1 X113.286 Y102.847 E17.84618
G1 X113.117 Y102.847 E17.85558
G1 X113.117 Y99.983 E18.01474
G1 X112.952 Y99.983 E18.02391
G1 X112.952 Y109.692 E18.56349
G1 X112.618 Y109.692 E18.58205
G1 X112.618 Y99.983 E19.12163
G1 X112.284 Y99.983 E19.1402
G1 X112.284 Y109.692 E19.67977
G1 X111.949 Y109.692 E19.69834
G1 X111.949 Y99.983 E20.23791
G1 X111.615 Y99.983 E20.25648
G1 X111.615 Y109.692 E20.79605
G1 X111.281 Y109.692 E20.81462
G1 X111.281 Y99.983 E21.35419
G1 X110.947 Y99.983 E21.37276
G1 X110.947 Y109.692 E21.91233
G1 X110.613 Y109.692 E21.9309
G1 X110.613 Y99.983 E22.47047
G1 X110.279 Y99.983 E22.48904
G1 X110.279 Y109.692 E23.02861
G1 X109.944 Y109.692 E23.04718
G1 X109.944 Y99.983 E23.58675
G1 X109.61 Y99.983 E23.60532
G1 X109.61 Y109.692 E24.14489
G1 X109.276 Y109.692 E24.16346
G1 X109.276 Y99.983 E24.70303
G1 X108.942 Y99.983 E24.7216
G1 X108.942 Y109.692 E25.26117
G1 X108.608 Y109.692 E25.27974
G1 X108.608 Y99.983 E25.81931
G1 X108.274 Y99.983 E25.83788
G1 X108.274 Y109.692 E26.37745
G1 X107.939 Y109.692 E26.39602
G1 X107.939 Y99.983 E26.93559
G1 X107.605 Y99.983 E26.95416
G1 X107.605 Y109.692 E27.49373
G1 X107.271 Y109.692 E27.5123
G1 X107.271 Y99.983 E28.05187
G1 X106.937 Y99.983 E28.07044
G1 X106.937 Y109.692 E28.61001
G1 X106.603 Y109.692 E28.62858
G1 X106.603 Y99.983 E29.16815
G1 X106.269 Y99.983 E29.18672
G1 X106.269 Y109.692 E29.72629
G1 X105.935 Y109.692 E29.74486
G1 X105.935 Y99.983 E30.28443
G1 X105.6 Y99.983 E30.303
G1 X105.6 Y109.692 E30.84257
G1 X105.266 Y109.692 E30.86114
G1 X105.266 Y99.983 E31.40071
G1 X104.932 Y99.983 E31.41928
G1 X104.932 Y109.692 E31.95885
G1 X104.598 Y109.692 E31.97742
G1 X104.598 Y99.983 E32.51699
G1 X104.524 Y99.983 E32.52107
G1 X104.524 Y97.119 E32.68024
G1 X104.264 Y97.119 E32.69473
G1 X104.264 Y109.692 E33.39346
G1 X103.93 Y109.692 E33.41203
G1 X103.93 Y97.119 E34.11077
G1 X103.595 Y97.119 E34.12934
G1 X103.595 Y109.692 E34.82807
G1 X103.261 Y109.692 E34.84664
G1 X103.261 Y97.119 E35.54538
G1 X102.927 Y97.119 E35.56394
G1 X102.927 Y109.692 E36.26268
G1 X102.593 Y109.692 E36.28125
G1 X102.593 Y97.119 E36.97998
G1 X102.259 Y97.119 E36.99855
G1 X102.259 Y109.692 E37.69729
G1 X101.925 Y109.692 E37.71586
G1 X101.925 Y97.119 E38.41459
G1 X101.59 Y97.119 E38.43316
G1 X101.59 Y109.692 E39.1319
G1 X101.256 Y109.692 E39.15047
G1 X101.256 Y97.119 E39.8492
G1 X100.922 Y97.119 E39.86777
G1 X100.922 Y109.692 E40.56651
G1 X100.588 Y109.705 E40.58509
G1 X100.588 Y97.119 E41.2845
G1 X100.254 Y97.119 E41.30307
G1 X100.254 Y109.721 E42.00338
G1 X99.92 Y109.733 E42.02196
G1 X99.92 Y97.119 E42.72296
G1 X99.586 Y97.119 E42.74152
G1 X99.586 Y109.788 E43.4456
G1 X99.251 Y109.851 E43.46449
G1 X99.251 Y97.119 E44.17207
G1 X98.917 Y97.119 E44.19064
G1 X98.917 Y108.189 E44.80585
G1 X98.583 Y108.189 E44.82442
G1 X98.583 Y97.119 E45.43964
G1 X98.249 Y97.119 E45.45821
G1 X98.249 Y108.189 E46.07342
G1 X97.915 Y108.189 E46.09199
G1 X97.915 Y97.119 E46.70721
G1 X97.581 Y97.119 E46.72578
G1 X97.581 Y108.189 E47.34099
G1 X97.246 Y108.189 E47.35956
G1 X97.246 Y97.119 E47.97477
G1 X96.912 Y97.119 E47.99334
G1 X96.912 Y108.189 E48.60856
G1 X96.578 Y108.189 E48.62713
G1 X96.578 Y97.119 E49.24234
G1 X96.244 Y97.119 E49.26091
G1 X96.244 Y108.189 E49.87613
G1 X95.91 Y108.189 E49.8947
G1 X95.91 Y97.119 E50.50991
G1 X95.576 Y97.119 E50.52848
G1 X95.576 Y108.189 E51.14369
G1 X95.241 Y108.189 E51.16226
G1 X95.241 Y97.119 E51.77748
G1 X94.907 Y97.119 E51.79605
G1 X94.907 Y108.189 E52.41126
G1 X94.573 Y108.189 E52.42983
G1 X94.573 Y97.119 E53.04505
G1 X94.239 Y97.119 E53.06362
G1 X94.239 Y108.189 E53.67883
G1 X93.905 Y108.189 E53.6974
G1 X93.905 Y97.119 E54.31262
G1 X93.571 Y97.119 E54.33118
G1 X93.571 Y108.34 E54.95476
G1 E51.95476 F900
G92 E0
G1 X100.063 Y111.443 F7200
G1 E3 F900
;TYPE:Perimeter
;WIDTH:0.42
G1 F750
G1 X100.893 Y111.406 E3.04613
G1 X120.107 Y111.406 E4.11387
G1 X120.831 Y111.442 E4.15418
G1 X121.39 Y111.542 E4.18573
G1 X121.944 Y111.696 E4.21769
G1 X122.597 Y112.005 E4.25785
G1 X123.659 Y112.554 E4.32427
G1 X124.319 Y113.123 E4.3727
G1 X124.84 Y113.721 E4.41677
G1 X125.268 Y114.372 E4.46003
G1 X125.612 Y115.085 E4.50407
G1 X125.86 Y115.837 E4.54807
G1 X125.935 Y116.264 E4.57214
G1 X126.015 Y116.976 E4.61194
G1 X126.032 Y117.48 E4.64
G1 X126.032 Y136.332 E5.68759
G1 X125.987 Y137.16 E5.73371
G1 X125.842 Y137.93 E5.77722
G1 X125.594 Y138.666 E5.8204
G1 X125.252 Y139.369 E5.86384
G1 X124.813 Y140.022 E5.90758
G1 X124.298 Y140.615 E5.9512
G1 X123.705 Y141.13 E5.99484
G1 X123.051 Y141.568 E6.03858
G1 X122.351 Y141.911 E6.08191
G1 X121.604 Y142.159 E6.12565
G1 X120.842 Y142.305 E6.16876
G1 X120.014 Y142.35 E6.21482
G1 X100.853 Y142.35 E7.27961
G1 X100.041 Y142.296 E7.32487
G1 X99.276 Y142.141 E7.36825
G1 X98.536 Y141.892 E7.41164
G1 X97.842 Y141.549 E7.45467
G1 X97.196 Y141.119 E7.49778
G1 X96.605 Y140.605 E7.54131
G1 X96.1 Y140.023 E7.58412
G1 X95.66 Y139.367 E7.62802
G1 X95.317 Y138.673 E7.67101
G1 X95.068 Y137.934 E7.71437
G1 X94.913 Y137.168 E7.75778
G1 X94.859 Y136.356 E7.80304
G1 X94.859 Y117.44 E8.85422
G1 X94.895 Y116.62 E8.89981
G1 X95.041 Y115.839 E8.94397
G1 X95.282 Y115.092 E8.98755
G1 X95.624 Y114.383 E9.03133
G1 X96.059 Y113.725 E9.07516
G1 X96.585 Y113.131 E9.11923
G1 X97.178 Y112.606 E9.16326
G1 X97.838 Y112.169 E9.20725
G1 X98.536 Y111.829 E9.25039
G1 X99.291 Y111.588 E9.29441
G1 X100.004 Y111.454 E9.33477
G1 X100.025 Y111.11 F7200
G1 F750
G1 X100.885 Y111.072 E9.38263
G1 X120.115 Y111.072 E10.45124
G1 X120.869 Y111.109 E10.49318
G1 X121.449 Y111.213 E10.52591
G1 X122.069 Y111.386 E10.56174
G1 X122.746 Y111.706 E10.60329
G1 X123.848 Y112.275 E10.67224
G1 X124.555 Y112.886 E10.72417
G1 X125.107 Y113.519 E10.77082
G1 X125.559 Y114.206 E10.81657
G1 X125.923 Y114.96 E10.86306
G1 X126.185 Y115.756 E10.90961
G1 X126.264 Y116.206 E10.93503
G1 X126.349 Y116.959 E10.97715
G1 X126.367 Y117.48 E11.00611
G1 X126.367 Y136.341 E12.05421
G1 X126.32 Y137.201 E12.10206
G1 X126.166 Y138.015 E12.1481
G1 X125.904 Y138.793 E12.19376
G1 X125.542 Y139.536 E12.23967
G1 X125.078 Y140.226 E12.28586
G1 X124.535 Y140.851 E12.33193
G1 X123.908 Y141.396 E12.37802
G1 X123.219 Y141.859 E12.42419
G1 X122.477 Y142.221 E12.47003
G1 X121.689 Y142.483 E12.51623
G1 X120.883 Y142.637 E12.56183
G1 X120.023 Y142.684 E12.60965
G1 X100.842 Y142.684 E13.67555
G1 X99.996 Y142.628 E13.72266
G1 X99.189 Y142.465 E13.76846
G1 X98.408 Y142.201 E13.81426
G1 X97.674 Y141.839 E13.85973
G1 X96.993 Y141.385 E13.90522
G1 X96.368 Y140.842 E13.95125
G1 X95.834 Y140.226 E13.99652
G1 X95.37 Y139.535 E14.0428
G1 X95.008 Y138.801 E14.08825
G1 X94.744 Y138.021 E14.13403
G1 X94.581 Y137.213 E14.17985
G1 X94.525 Y136.367 E14.22696
G1 X94.525 Y117.432 E15.27916
G1 X94.562 Y116.582 E15.32647
G1 X94.716 Y115.757 E15.37312
G1 X94.971 Y114.968 E15.41916
G1 X95.333 Y114.217 E15.46548
G1 X95.793 Y113.521 E15.51187
G1 X96.348 Y112.894 E15.55837
G1 X96.974 Y112.34 E15.60483
G1 X97.672 Y111.878 E15.65134
G1 X98.411 Y111.518 E15.69705
G1 X99.209 Y111.264 E15.74356
G1 X99.966 Y111.121 E15.78638
G1 X99.986 Y110.777 F7200
;TYPE:External perimeter
G1 F375
G1 X100.878 Y110.738 E15.83598
G1 X120.123 Y110.738 E16.90545
G1 X120.906 Y110.777 E16.94903
G1 X121.763 Y110.929 E16.99739
G1 X122.195 Y111.076 E17.02273
G1 X122.894 Y111.406 E17.06567
G1 X124.036 Y111.997 E17.13714
G1 X124.791 Y112.648 E17.19258
G1 X125.374 Y113.316 E17.24181
G1 X125.851 Y114.041 E17.29005
G1 X126.233 Y114.834 E17.33899
G1 X126.51 Y115.674 E17.3881
G1 X126.663 Y116.543 E17.43712
G1 X126.701 Y117.48 E17.48926
G1 X126.701 Y136.35 E18.53786
G1 X126.652 Y137.241 E18.58745
